dist/img/gost.svg

<svg width="118" height="118" viewBox="0 0 118 118" fill="none" xmlns="http://www.w3.org/2000/svg">
<path d="M118 43.66C117.073 55.8814 114.713 67.85 110.92 79.5657C107.043 91.2814 101.901 102.491 95.58 113.027C83.6114 115.809 71.39 117.241 59.1686 117.241C46.8629 117.241 34.6414 115.893 22.6729 113.027H22.5886C9.86143 91.8714 2.10714 68.1871 0 43.66V43.5757C8.00714 34.3043 17.0257 25.96 26.9714 18.7114C36.9171 11.4629 47.7057 5.47858 59.0843 0.758575C70.3786 5.47858 81.0829 11.4629 91.0286 18.6271C100.974 25.8757 109.993 34.3043 118 43.66Z" fill="#2D3238"/>
<path d="M41.216 59.4214V62.2029H33.1245V75.3514H29.8374V59.4214H41.216Z" fill="white"/>
<path d="M50.4031 59C52.5102 59 57.9888 59.9271 57.9888 67.3443C57.9888 74.7614 52.5102 75.7729 50.4031 75.7729C48.296 75.7729 42.8174 74.8457 42.8174 67.4286C42.8174 60.0114 48.296 59 50.4031 59ZM50.4031 72.9071C52.1731 72.9071 54.7017 71.8114 54.7017 67.3443C54.7017 62.8771 52.1731 61.7814 50.4031 61.7814C48.6331 61.7814 46.1045 62.8771 46.1045 67.3443C46.1045 71.8114 48.5488 72.9071 50.4031 72.9071Z" fill="white"/>
<path d="M70.8001 64.6471C70.5472 62.8771 69.0301 61.6971 67.2601 61.8657C65.6587 61.8657 63.2144 62.9614 63.2144 67.5129C63.2144 70.3786 64.3944 72.9914 67.2601 72.9914C69.0301 73.0757 70.5472 71.7271 70.8001 69.9571H74.0872C73.413 73.4129 71.1372 75.8571 67.1758 75.8571C62.9615 75.8571 59.9272 72.9914 59.9272 67.5129C59.9272 62.0343 63.1301 59.0843 67.2601 59.0843C71.9801 59.0843 73.9187 62.3714 74.0872 64.7314L70.8001 64.6471Z" fill="white"/>
<path d="M83.3585 75.3514H80.0714V62.1186H75.2671V59.3371H88.1628V62.1186H83.3585V75.3514Z" fill="white"/>
<path d="M18.8799 49.6443L20.8185 50.2343C20.6499 50.8243 20.4813 51.2457 20.2285 51.5829C19.9756 51.92 19.5542 52.2571 19.1328 52.4257C18.7113 52.5943 18.2056 52.6786 17.5313 52.6786C16.7728 52.6786 16.0985 52.5943 15.5928 52.3414C15.087 52.0886 14.6656 51.7514 14.3285 51.1614C13.9913 50.5714 13.8228 49.8129 13.8228 48.97C13.8228 47.79 14.1599 46.8629 14.7499 46.1886C15.4242 45.5143 16.267 45.2614 17.447 45.2614C18.3742 45.2614 19.0485 45.43 19.6385 45.8514C20.2285 46.2729 20.5656 46.7786 20.8185 47.5371L18.8799 47.9586C18.7956 47.7057 18.7113 47.5371 18.627 47.4529C18.5428 47.2843 18.3742 47.1157 18.2056 47.0314C18.037 46.9471 17.7842 46.8629 17.6156 46.8629C17.1099 46.8629 16.6885 47.0314 16.4356 47.4529C16.267 47.79 16.0985 48.2114 16.0985 48.8857C16.0985 49.7286 16.1828 50.2343 16.4356 50.5714C16.6885 50.9086 17.0256 50.9929 17.447 50.9929C17.8685 50.9929 18.2056 50.9086 18.4585 50.6557C18.7113 50.4029 18.7956 50.15 18.8799 49.6443Z" fill="white"/>
<path d="M21.6611 49.0543C21.6611 47.8743 21.9983 46.9471 22.6726 46.2729C23.3468 45.5986 24.274 45.2614 25.454 45.2614C26.634 45.2614 27.5611 45.5986 28.2354 46.2729C28.9097 46.9471 29.2468 47.79 29.2468 48.97C29.2468 49.8129 29.0783 50.4871 28.8254 51.0771C28.5726 51.6671 28.1511 52.0043 27.5611 52.3414C26.9711 52.6786 26.3811 52.7629 25.5383 52.7629C24.6954 52.7629 24.0211 52.5943 23.5154 52.3414C23.0097 52.0886 22.5883 51.6671 22.2511 51.0771C21.914 50.4871 21.6611 49.8971 21.6611 49.0543ZM23.9368 49.0543C23.9368 49.8129 24.1054 50.3186 24.3583 50.6557C24.6111 50.9929 25.0326 51.1614 25.454 51.1614C25.9597 51.1614 26.2968 50.9929 26.5497 50.6557C26.8026 50.3186 26.9711 49.8129 26.9711 48.97C26.9711 48.2957 26.8026 47.79 26.5497 47.4529C26.2968 47.1157 25.8754 46.9471 25.454 46.9471C25.0326 46.9471 24.6111 47.1157 24.3583 47.4529C24.1054 47.79 23.9368 48.2957 23.9368 49.0543Z" fill="white"/>
<path d="M30.0898 49.0543C30.0898 47.8743 30.427 46.9471 31.1013 46.2729C31.7756 45.5986 32.7027 45.2614 33.8827 45.2614C35.0627 45.2614 35.9898 45.5986 36.6641 46.2729C37.3384 46.9471 37.6756 47.79 37.6756 48.97C37.6756 49.8129 37.507 50.4871 37.2541 51.0771C37.0013 51.6671 36.5798 52.0043 35.9898 52.3414C35.3998 52.6786 34.8098 52.7629 33.967 52.7629C33.1241 52.7629 32.4498 52.5943 31.9441 52.3414C31.4384 52.0886 31.017 51.6671 30.6798 51.0771C30.3427 50.4871 30.0898 49.8971 30.0898 49.0543ZM32.2813 49.0543C32.2813 49.8129 32.4498 50.3186 32.7027 50.6557C32.9556 50.9929 33.377 51.1614 33.7984 51.1614C34.3041 51.1614 34.6413 50.9929 34.8941 50.6557C35.147 50.3186 35.3156 49.8129 35.3156 48.97C35.3156 48.2957 35.147 47.79 34.8941 47.4529C34.6413 47.1157 34.2198 46.9471 33.7984 46.9471C33.377 46.9471 32.9556 47.1157 32.7027 47.4529C32.4498 47.79 32.2813 48.2957 32.2813 49.0543Z" fill="white"/>
<path d="M38.2656 45.43H45.0928V47.2H42.8171V52.6786H40.5413V47.2H38.2656V45.43Z" fill="white"/>
<path d="M46.104 45.43H50.3183C50.9926 45.43 51.5826 45.5986 51.9197 45.9357C52.2569 46.2728 52.5097 46.6943 52.5097 47.2C52.5097 47.6214 52.3411 47.9586 52.0883 48.2957C51.9197 48.4643 51.6669 48.6328 51.3297 48.8014C51.8354 48.8857 52.2569 49.1386 52.5097 49.4757C52.7626 49.8128 52.8469 50.15 52.8469 50.6557C52.8469 50.9928 52.7626 51.33 52.594 51.6671C52.4254 52.0043 52.1726 52.1728 51.9197 52.3414C51.7511 52.4257 51.414 52.51 51.0769 52.5943C50.5711 52.6786 50.234 52.6786 50.0654 52.6786H46.1883V45.43H46.104ZM48.3797 48.2114H49.3911C49.7283 48.2114 49.9811 48.1271 50.1497 48.0428C50.3183 47.9586 50.3183 47.79 50.3183 47.5371C50.3183 47.2843 50.234 47.2 50.1497 47.0314C50.0654 46.8628 49.8126 46.8628 49.4754 46.8628H48.464V48.2114H48.3797ZM48.3797 51.0771H49.5597C49.9811 51.0771 50.234 50.9928 50.4026 50.9086C50.5711 50.8243 50.5711 50.5714 50.5711 50.3186C50.5711 50.0657 50.4869 49.8971 50.3183 49.8128C50.1497 49.7286 49.8969 49.6443 49.4754 49.6443H48.3797V51.0771Z" fill="white"/>
<path d="M53.9429 45.43H59.9271V46.9471H56.1343V48.1271H59.59V49.6443H56.1343V51.0771H60.0114V52.6786H53.9429V45.43Z" fill="white"/>
<path d="M60.77 45.43H67.5972V47.2H65.3215V52.6786H63.0457V47.2H60.77V45.43Z" fill="white"/>
<path d="M73.4129 49.6443L75.3515 50.2343C75.1829 50.8243 75.0143 51.2457 74.7615 51.5829C74.5086 51.92 74.0872 52.2571 73.6658 52.4257C73.2443 52.5943 72.7386 52.6786 72.0643 52.6786C71.3058 52.6786 70.6315 52.5943 70.1258 52.3414C69.6201 52.0886 69.1986 51.7514 68.8615 51.1614C68.5243 50.5714 68.2715 49.8971 68.2715 48.97C68.2715 47.79 68.6086 46.8629 69.1986 46.1886C69.8729 45.5143 70.7158 45.2614 71.8958 45.2614C72.8229 45.2614 73.4972 45.43 74.0872 45.8514C74.6772 46.2729 75.0144 46.7786 75.2672 47.5371L73.3286 47.9586C73.2443 47.7057 73.1601 47.5371 73.0758 47.4529C72.9915 47.2843 72.8229 47.1157 72.6543 47.0314C72.4858 46.9471 72.2329 46.8629 72.0643 46.8629C71.5586 46.8629 71.1372 47.0314 70.8843 47.4529C70.7158 47.79 70.5472 48.2114 70.5472 48.8857C70.5472 49.7286 70.6315 50.2343 70.8843 50.5714C71.1372 50.9086 71.4743 50.9929 71.8958 50.9929C72.3172 50.9929 72.6543 50.9086 72.9072 50.6557C73.1601 50.4029 73.3286 50.15 73.4129 49.6443Z" fill="white"/>
<path d="M75.9414 45.43H82.7685V47.2H80.4928V52.6786H78.2171V47.2H75.9414V45.43Z" fill="white"/>
<path d="M83.7798 45.43H87.9941C88.6684 45.43 89.2584 45.5986 89.5955 45.9357C89.9327 46.2728 90.1855 46.6943 90.1855 47.2C90.1855 47.6214 90.0169 47.9586 89.7641 48.2957C89.5955 48.4643 89.3426 48.6328 89.0055 48.8014C89.5112 48.8857 89.9326 49.1386 90.1855 49.4757C90.4384 49.8128 90.5227 50.15 90.5227 50.6557C90.5227 50.9928 90.4384 51.33 90.2698 51.6671C90.1012 52.0043 89.8484 52.1728 89.5955 52.3414C89.4269 52.4257 89.0898 52.51 88.7527 52.5943C88.2469 52.6786 87.9098 52.6786 87.7412 52.6786H83.8641V45.43H83.7798ZM85.9712 48.2114H86.9826C87.3198 48.2114 87.5726 48.1271 87.7412 48.0428C87.9098 47.9586 87.9098 47.79 87.9098 47.5371C87.9098 47.2843 87.8255 47.2 87.7412 47.0314C87.6569 46.8628 87.4041 46.8628 87.0669 46.8628H85.9712V48.2114ZM85.9712 51.0771H87.1512C87.5726 51.0771 87.8255 50.9928 87.9941 50.9086C88.1626 50.8243 88.2469 50.5714 88.2469 50.3186C88.2469 50.0657 88.1626 49.8971 87.9941 49.8128C87.8255 49.7286 87.5726 49.6443 87.1512 49.6443H85.9712V51.0771Z" fill="white"/>
<path d="M98.5301 45.43V52.6786H96.4229V48.7171L93.7258 52.6786H91.6187V45.43H93.7258V49.4757L96.4229 45.43H98.5301Z" fill="white"/>
<path d="M100.047 45.43H106.031V46.9471H102.238V48.1271H105.694V49.6443H102.238V51.0771H106.115V52.6786H100.047V45.43Z" fill="white"/>
<path d="M111.594 45.3457C110.751 56.2186 108.644 66.9229 105.273 77.3743C101.817 87.8257 97.2658 97.8557 91.6186 107.211C80.9143 109.656 70.0415 111.004 59.1686 111.004C48.2115 111.004 37.3386 109.824 26.6343 107.211H26.55C15.1715 88.3314 8.26005 67.1757 6.40576 45.3457V45.2614C13.57 37.0014 21.5772 29.5843 30.4272 23.0943C39.2772 16.6043 48.8858 11.2943 59.0843 7.08C69.1143 11.2943 78.7229 16.6043 87.5729 23.01C96.4229 29.5 104.43 37.0014 111.594 45.3457Z" stroke="white" stroke-width="3" stroke-miterlimit="10"/>
</svg>

<svg width="118" height="118" fill="none" xmlns="http://www.w3.org/2000/svg"><path d="M118 43.66a153.98 153.98 0 01-7.08 35.906 166.97 166.97 0 01-15.34 33.461c-11.969 2.782-24.19 4.214-36.411 4.214-12.306 0-24.528-1.348-36.496-4.214h-.084C9.86 91.871 2.107 68.187 0 43.66v-.084A160.657 160.657 0 0126.971 18.71C36.917 11.463 47.706 5.48 59.084.76A160.499 160.499 0 0191.03 18.627c9.945 7.249 18.964 15.677 26.971 25.033z" fill="#2D3238"/><path d="M41.216 59.421v2.782h-8.092V75.35h-3.287V59.42h11.379zM50.403 59c2.107 0 7.586.927 7.586 8.344s-5.479 8.429-7.586 8.429-7.586-.927-7.586-8.344c0-7.418 5.479-8.429 7.586-8.429zm0 13.907c1.77 0 4.299-1.096 4.299-5.563s-2.529-5.563-4.299-5.563c-1.77 0-4.298 1.096-4.298 5.563s2.444 5.563 4.298 5.563zm20.397-8.26c-.253-1.77-1.77-2.95-3.54-2.781-1.601 0-4.046 1.095-4.046 5.647 0 2.866 1.18 5.478 4.046 5.478 1.77.085 3.287-1.264 3.54-3.034h3.287c-.674 3.456-2.95 5.9-6.911 5.9-4.215 0-7.249-2.866-7.249-8.344 0-5.479 3.203-8.429 7.333-8.429 4.72 0 6.659 3.287 6.827 5.647l-3.287-.084zm12.559 10.704H80.07V62.12h-4.804v-2.782h12.896v2.782h-4.804v13.23zM18.88 49.644l1.939.59c-.17.59-.338 1.012-.59 1.349a2.74 2.74 0 01-1.096.843c-.422.168-.927.253-1.602.253-.758 0-1.432-.085-1.938-.338a2.813 2.813 0 01-1.264-1.18c-.338-.59-.506-1.348-.506-2.191 0-1.18.337-2.107.927-2.781.674-.675 1.517-.928 2.697-.928.927 0 1.602.169 2.192.59.59.422.927.928 1.18 1.686l-1.94.422c-.083-.253-.168-.422-.252-.506a1.015 1.015 0 00-.421-.422c-.169-.084-.422-.168-.59-.168-.506 0-.927.168-1.18.59a2.974 2.974 0 00-.337 1.433c0 .843.084 1.348.337 1.685.253.338.59.422 1.011.422.422 0 .759-.084 1.012-.337.252-.253.337-.506.42-1.012zm2.781-.59c0-1.18.337-2.107 1.012-2.781.674-.674 1.601-1.012 2.781-1.012 1.18 0 2.107.338 2.781 1.012.675.674 1.012 1.517 1.012 2.697a5.2 5.2 0 01-.422 2.107c-.252.59-.674.927-1.264 1.264-.59.338-1.18.422-2.023.422-.843 0-1.517-.169-2.023-.422-.505-.252-.927-.674-1.264-1.264-.337-.59-.59-1.18-.59-2.023zm2.276 0c0 .759.168 1.265.421 1.602.253.337.675.505 1.096.505.506 0 .843-.168 1.096-.505.253-.337.421-.843.421-1.686 0-.674-.168-1.18-.421-1.517-.253-.337-.675-.506-1.096-.506-.421 0-.843.169-1.096.506-.253.337-.421.843-.421 1.601zm6.153 0c0-1.18.337-2.107 1.011-2.781.675-.674 1.602-1.012 2.782-1.012s2.107.338 2.781 1.012c.674.674 1.012 1.517 1.012 2.697a5.2 5.2 0 01-.422 2.107c-.253.59-.674.927-1.264 1.264-.59.338-1.18.422-2.023.422-.843 0-1.517-.169-2.023-.422-.506-.252-.927-.674-1.264-1.264-.337-.59-.59-1.18-.59-2.023zm2.191 0c0 .759.169 1.265.422 1.602.253.337.674.505 1.095.505.506 0 .843-.168 1.096-.505.253-.337.422-.843.422-1.686 0-.674-.169-1.18-.422-1.517-.253-.337-.674-.506-1.096-.506-.421 0-.842.169-1.095.506-.253.337-.422.843-.422 1.601zm5.985-3.624h6.827v1.77h-2.276v5.479h-2.276V47.2h-2.275v-1.77zm7.838 0h4.214c.675 0 1.265.169 1.602.506.337.337.59.758.59 1.264 0 .421-.169.759-.422 1.096-.168.168-.421.337-.758.505.505.085.927.338 1.18.675.253.337.337.674.337 1.18 0 .337-.084.674-.253 1.011-.169.337-.421.506-.674.674-.169.085-.506.169-.843.253-.506.085-.843.085-1.012.085h-3.877V45.43h-.084zm2.276 2.781h1.011c.337 0 .59-.084.759-.168.168-.084.168-.253.168-.506s-.084-.337-.168-.506c-.085-.168-.337-.168-.675-.168h-1.011v1.348h-.084zm0 2.866h1.18c.421 0 .674-.084.843-.168.168-.085.168-.338.168-.59 0-.253-.084-.422-.253-.506-.168-.084-.421-.169-.843-.169H48.38v1.433zm5.563-5.647h5.984v1.517h-3.793v1.18h3.456v1.517h-3.456v1.433h3.877v1.602h-6.068V45.43zm6.827 0h6.827v1.77h-2.275v5.479h-2.276V47.2H60.77v-1.77zm12.643 4.214l1.939.59c-.17.59-.338 1.012-.59 1.349a2.74 2.74 0 01-1.096.843c-.422.168-.927.253-1.602.253-.758 0-1.432-.085-1.938-.338a2.813 2.813 0 01-1.264-1.18 4.207 4.207 0 01-.59-2.191c0-1.18.337-2.107.927-2.781.674-.675 1.517-.928 2.697-.928.927 0 1.601.169 2.191.59.59.422.927.928 1.18 1.686l-1.938.422c-.085-.253-.169-.422-.253-.506a1.016 1.016 0 00-.422-.422c-.168-.084-.421-.168-.59-.168-.505 0-.927.168-1.18.59a2.976 2.976 0 00-.337 1.433c0 .843.085 1.348.337 1.685.253.338.59.422 1.012.422.421 0 .758-.084 1.011-.337.253-.253.422-.506.506-1.012zm2.528-4.214h6.828v1.77h-2.276v5.479h-2.276V47.2h-2.276v-1.77zm7.839 0h4.214c.674 0 1.264.169 1.602.506.337.337.59.758.59 1.264 0 .421-.17.759-.422 1.096-.168.168-.421.337-.758.505.505.085.927.338 1.18.675.252.337.337.674.337 1.18 0 .337-.085.674-.253 1.011-.169.337-.422.506-.674.674-.17.085-.506.169-.843.253-.506.085-.843.085-1.012.085h-3.877V45.43h-.084zm2.191 2.781h1.012c.337 0 .59-.084.758-.168.169-.084.169-.253.169-.506s-.084-.337-.169-.506c-.084-.168-.337-.168-.674-.168H85.97v1.348zm0 2.866h1.18c.422 0 .675-.084.843-.168.169-.085.253-.338.253-.59 0-.253-.084-.422-.253-.506-.168-.084-.421-.169-.843-.169h-1.18v1.433zM98.53 45.43v7.249h-2.107v-3.962l-2.697 3.962h-2.107V45.43h2.107v4.046l2.697-4.046h2.107zm1.517 0h5.984v1.517h-3.793v1.18h3.456v1.517h-3.456v1.433h3.877v1.602h-6.068V45.43z" fill="#fff"/><path d="M111.594 45.346a139.158 139.158 0 01-6.321 32.028c-3.456 10.452-8.007 20.482-13.654 29.837-10.705 2.445-21.578 3.793-32.45 3.793-10.957 0-21.83-1.18-32.535-3.793h-.084C15.171 88.331 8.26 67.176 6.406 45.346v-.085c7.164-8.26 15.171-15.677 24.021-22.167 8.85-6.49 18.459-11.8 28.657-16.014 10.03 4.214 19.639 9.524 28.489 15.93 8.85 6.49 16.857 13.991 24.021 22.336z" stroke="#fff" stroke-width="3" stroke-miterlimit="10"/></svg>
